X:4626
T:Earl of Dalkeith,The. BF12.07
M:2/2
L:1/8
Q:200
S:MS12,J.Wilson,1833,Browne Coll.,Lakes
R:Reel
O:England
A:Lakes
N:Key signature shown as sharps in top space and  3rd space down (E and
N:A)
Z:vmp.Cherri Graebe.
K:D Major
f|d2fd AAfd|egfe dBBc|d2fd Agfe|dBAF DDD:|!
|:B|AEFA B2cd|AdFA BEEB|ADFA defd|BdAF D/2D/2DD:||
